X: 12029
T: Eric's
R: slip jig
M: 9/8
K: Gmajor
|:G e2 d|A G2- G2 G g>fg|e3- e3 g>fg|B3 c>de d>cB|A3- A2G e2 d|
A G2- G2 G g>fg|e3- e3 g>ed|B3 G>AB c>AF|G3- G2:|
|:D G>Bd|e3 e>de g>ed|B3 G3 G>Bd|e d2 d>eg a>fd|d3- d3 d>cB|
c3 d2 g B>dG|G3 A2 G G>gd|B3 G>AB c>AF|G3- G2:|

